Icons/Colored/Reset.svg

<svg xmlns="http://www.w3.org/2000/svg" xml:space="preserve" fill-rule="evenodd" stroke-linejoin="round" stroke-miterlimit="2" clip-rule="evenodd" viewBox="0 0 64 64">
  <g id="blue">
    <path fill="#73a7c7" d="M51.961 36.258s-.481 8.445-3.762 14.472c-2.519 4.633-7.344 7.215-10.906 7.239-8.332.058-17.434-.344-20.258-2.184-5.594-3.656-4.105-14.414-4.105-14.414H6.957l8.34-9.949 10.312 9.949h-6.582s-1.64 6.703 2.43 8.957c1.922 1.063 9.035 1.32 16.02 1.297 7.812-.023 7.586-15.191 7.586-15.191l6.898-.176Zm-39.922-8.516s.481-8.445 3.762-14.472c2.519-4.633 7.344-7.215 10.906-7.239 8.332-.058 17.434.344 20.258 2.184 5.594 3.656 4.105 14.414 4.105 14.414h5.973l-8.34 9.949-10.312-9.949h6.582s1.64-6.703-2.43-8.957c-1.922-1.063-9.035-1.32-16.02-1.297-7.812.023-7.585 15.191-7.585 15.191l-6.899.176Z"/>
  </g>
</svg>

<?xml version="1.0" encoding="UTF-8" standalone="no"?>
<!DOCTYPE svg PUBLIC "-//W3C//DTD SVG 1.1//EN" "http://www.w3.org/Graphics/SVG/1.1/DTD/svg11.dtd">
<svg width="100%" height="100%" viewBox="0 0 64 64" version="1.1" xmlns="http://www.w3.org/2000/svg" xmlns:xlink="http://www.w3.org/1999/xlink" xml:space="preserve" xmlns:serif="http://www.serif.com/" style="fill-rule:evenodd;clip-rule:evenodd;stroke-linejoin:round;stroke-miterlimit:2;">
    <g id="surface1">
        <path d="M51.961,36.258C51.961,36.258 51.48,44.703 48.199,50.73C45.68,55.363 40.855,57.945 37.293,57.969C28.961,58.027 19.859,57.625 17.035,55.785C11.441,52.129 12.93,41.371 12.93,41.371L6.957,41.371L15.297,31.422L25.609,41.371L19.027,41.371C19.027,41.371 17.387,48.074 21.457,50.328C23.379,51.391 30.492,51.648 37.477,51.625C45.289,51.602 45.063,36.434 45.063,36.434L51.961,36.258Z" style="fill:#73a7c7;fill-rule:nonzero;"/>
        <path d="M12.039,27.742C12.039,27.742 12.52,19.297 15.801,13.27C18.32,8.637 23.145,6.055 26.707,6.031C35.039,5.973 44.141,6.375 46.965,8.215C52.559,11.871 51.07,22.629 51.07,22.629L57.043,22.629L48.703,32.578L38.391,22.629L44.973,22.629C44.973,22.629 46.613,15.926 42.543,13.672C40.621,12.609 33.508,12.352 26.523,12.375C18.711,12.398 18.938,27.566 18.938,27.566L12.039,27.742Z" style="fill:#73a7c7;fill-rule:nonzero;"/>
    </g>
</svg>
